svgs/sharp-regular/turntable.svg

<svg xmlns="http://www.w3.org/2000/svg" viewBox="0 0 576 512"><!--! Font Awesome Pro 6.6.0 by @fontawesome - https://fontawesome.com License - https://fontawesome.com/license (Commercial License) Copyright 2024 Fonticons, Inc. --><path d="M528 80l0 352L48 432 48 80l480 0zM48 32L0 32 0 80 0 432l0 48 48 0 480 0 48 0 0-48 0-352 0-48-48 0L48 32zm448 80l-48 0 0 24 0 145.9-45.1 82.6-11.5 21.1 42.1 23 11.5-21.1 48-88 2.9-5.4 0-6.1 0-152 0-24zM368 256A144 144 0 1 0 80 256a144 144 0 1 0 288 0zm-176 0a32 32 0 1 1 64 0 32 32 0 1 1 -64 0z"/></svg>

<svg xmlns="http://www.w3.org/2000/svg" viewBox="0 0 576 512"><!--! Font Awesome Pro 6.4.0 by @fontawesome - https://fontawesome.com License - https://fontawesome.com/license (Commercial License) Copyright 2023 Fonticons, Inc. --><path d="M528 80V432H48V80H528zM48 32H0V80 432v48H48 528h48V432 80 32H528 48zm448 80H448v24V281.9l-45.1 82.6-11.5 21.1 42.1 23 11.5-21.1 48-88 2.9-5.4V288 136 112zM368 256A144 144 0 1 0 80 256a144 144 0 1 0 288 0zm-176 0a32 32 0 1 1 64 0 32 32 0 1 1 -64 0z"/></svg>
